svgs/light/calendar-arrow-down.svg

<svg xmlns="http://www.w3.org/2000/svg" viewBox="0 0 448 512"><!-- Font Awesome Pro 6.0.0-alpha2 by @fontawesome - https://fontawesome.com License - https://fontawesome.com/license (Commercial License) --><path d="M384 64H352V16C352 7.164 344.836 0 336 0S320 7.164 320 16V64H128V16C128 7.164 120.836 0 112 0S96 7.164 96 16V64H64C28.654 64 0 92.654 0 128V448C0 483.346 28.654 512 64 512H384C419.346 512 448 483.346 448 448V128C448 92.654 419.346 64 384 64ZM416 448C416 465.674 401.674 480 384 480H64C46.326 480 32 465.674 32 448V192H416V448ZM416 160H32V128C32 110.326 46.326 96 64 96H384C401.674 96 416 110.326 416 128V160ZM285.375 324.031L240 364.369V256C240 247.156 232.844 240 224 240S208 247.156 208 256V364.369L162.625 324.031C159.594 321.344 155.781 320 152 320C147.594 320 143.188 321.812 140.031 325.375C134.156 331.969 134.781 342.094 141.375 347.969L213.375 411.953C219.438 417.359 228.563 417.359 234.625 411.953L306.625 347.969C313.219 342.094 313.844 331.969 307.969 325.375C302.125 318.781 291.969 318.219 285.375 324.031Z"/></svg>

<svg xmlns="http://www.w3.org/2000/svg" viewBox="0 0 448 512"><!--! Font Awesome Pro 6.4.0 by @fontawesome - https://fontawesome.com License - https://fontawesome.com/license (Commercial License) Copyright 2023 Fonticons, Inc. --><path d="M128 16c0-8.8-7.2-16-16-16s-16 7.2-16 16V64H64C28.7 64 0 92.7 0 128v32 32V448c0 35.3 28.7 64 64 64H384c35.3 0 64-28.7 64-64V192 160 128c0-35.3-28.7-64-64-64H352V16c0-8.8-7.2-16-16-16s-16 7.2-16 16V64H128V16zM32 192H416V448c0 17.7-14.3 32-32 32H64c-17.7 0-32-14.3-32-32V192zM64 96H384c17.7 0 32 14.3 32 32v32H32V128c0-17.7 14.3-32 32-32zM240 256c0-8.8-7.2-16-16-16s-16 7.2-16 16V377.4l-52.7-52.7c-6.2-6.2-16.4-6.2-22.6 0s-6.2 16.4 0 22.6l80 80c6.2 6.2 16.4 6.2 22.6 0l80-80c6.2-6.2 6.2-16.4 0-22.6s-16.4-6.2-22.6 0L240 377.4V256z"/></svg>
